app/assets/images/payment_icons/mobilepay.svg

<svg viewBox="0 0 38 24" xmlns="http://www.w3.org/2000/svg" width="38" height="24" role="img" aria-labelledby="pi-mobilepay"><title id="pi-mobilepay">MobilePay</title>
<path fill="#000" opacity=".07" d="M35 0H3C1.3 0 0 1.3 0 3v18c0 1.7 1.4 3 3 3h32c1.7 0 3-1.3 3-3V3c0-1.7-1.4-3-3-3z"/>
<path fill="#fff" d="M35 1c1.1 0 2 .9 2 2v18c0 1.1-.9 2-2 2H3c-1.1 0-2-.9-2-2V3c0-1.1.9-2 2-2h32"/>
<path fill-rule="evenodd" clip-rule="evenodd" d="M20.0493 15.296C20.0493 15.296 22.5805 14.5245 24.3323 14.5202C27.2284 14.513 29.1886 15.6699 29.1886 15.6699V10.061C29.1886 10.061 27.2184 9.04089 24.7365 8.97191C22.2546 8.90294 20.0493 9.98284 20.0493 9.98284L20.0493 15.296Z" fill="#5A78FF"/>
<path fill-rule="evenodd" clip-rule="evenodd" d="M17.3075 9.18915L19.3902 14.1467V9.39554C19.3902 9.39554 21.0362 8.51412 22.8753 8.2658C24.7144 8.01748 27.0561 8.34588 27.0561 8.34588L25.9233 5.63944C25.9233 5.63944 23.4618 5.48048 21.2335 6.43259C19.0052 7.38469 17.3075 9.18915 17.3075 9.18915Z" fill="#5A78FF"/>
<path d="M21.4276 5.67569C21.1541 5.01228 20.6073 3.68547 20.6073 3.68547C20.2236 2.75458 19.1625 2.30909 18.2373 2.69044L12.5748 5.02434C11.6496 5.4057 11.2105 6.46948 11.5942 7.40038L17.0541 20.6471C17.4378 21.578 18.4989 22.0235 19.4241 21.6421L25.0866 19.3082C26.0119 18.9269 26.4509 17.8631 26.0672 16.9322C26.0672 16.9322 25.5485 15.6738 25.3903 15.2899C25.3903 15.2899 24.9281 15.2626 24.714 15.2571C24.4879 15.2512 24.0696 15.2557 24.0696 15.2557C24.2735 15.7504 24.9503 17.3925 24.9503 17.3925C25.0782 17.7028 24.9319 18.0574 24.6235 18.1845L18.961 20.5184C18.6526 20.6456 18.2989 20.4971 18.171 20.1868L12.7111 6.94005C12.5832 6.62975 12.7295 6.27515 13.0379 6.14803L18.7004 3.81413C19.0088 3.68701 19.3625 3.83551 19.4904 4.14581L20.3196 6.15745C20.3196 6.15745 20.7033 5.97022 20.9095 5.88758C21.1157 5.80494 21.4276 5.67569 21.4276 5.67569Z" fill="#5A78FF"/>
</svg>

<svg viewBox="0 0 38 24" xmlns="http://www.w3.org/2000/svg" width="38" height="24" role="img" aria-labelledby="pi-mobilepay"><title id="pi-mobilepay">MobilePay</title><path fill="#000" opacity=".07" d="M35 0H3C1.3 0 0 1.3 0 3v18c0 1.7 1.4 3 3 3h32c1.7 0 3-1.3 3-3V3c0-1.7-1.4-3-3-3z"/><path fill="#fff" d="M35 1c1.1 0 2 .9 2 2v18c0 1.1-.9 2-2 2H3c-1.1 0-2-.9-2-2V3c0-1.1.9-2 2-2h32"/><path fill-rule="evenodd" clip-rule="evenodd" d="M20.05 15.296s2.53-.771 4.282-.776c2.896-.007 4.857 1.15 4.857 1.15V10.06s-1.97-1.02-4.453-1.09c-2.481-.068-4.687 1.012-4.687 1.012v5.313z" fill="#5A78FF"/><path fill-rule="evenodd" clip-rule="evenodd" d="M17.308 9.19l2.082 4.957V9.396s1.646-.882 3.485-1.13c1.84-.249 4.181.08 4.181.08l-1.133-2.707s-2.461-.159-4.69.794c-2.228.952-3.925 2.756-3.925 2.756z" fill="#5A78FF"/><path d="M21.428 5.676l-.82-1.99a1.818 1.818 0 00-2.37-.996l-5.663 2.334a1.818 1.818 0 00-.98 2.376l5.46 13.247a1.818 1.818 0 002.37.995l5.662-2.334a1.817 1.817 0 00.98-2.376l-.677-1.642s-.462-.027-.676-.033c-.226-.006-.644-.001-.644-.001l.88 2.136a.606.606 0 01-.326.793l-5.663 2.333a.606.606 0 01-.79-.331L12.711 6.94a.606.606 0 01.327-.792L18.7 3.814a.606.606 0 01.79.332l.83 2.011s.383-.187.59-.27c.206-.082.518-.211.518-.211z" fill="#5A78FF"/></svg>
